GeDL/grammar/diagram/Notification.svg

<?xml version="1.0" encoding="UTF-8"?>
<svg id="Layer_1" data-name="Layer 1" xmlns="http://www.w3.org/2000/svg" xmlns:xlink="http://www.w3.org/1999/xlink" version="1.1" viewBox="0 0 518.2 283.6">
  <defs>
    <style>
      .cls-1 {
        fill: #1a1400;
        font-family: Verdana, Verdana;
      }

      .cls-1, .cls-2 {
        font-size: 12px;
        isolation: isolate;
      }

      .cls-3 {
        fill: #332900;
      }

      .cls-3, .cls-4, .cls-5, .cls-6 {
        stroke: #332900;
      }

      .cls-2 {
        fill: #141000;
        font-family: Verdana-Bold, Verdana;
        font-weight: 700;
      }

      .cls-4 {
        fill: #ffdb4d;
      }

      .cls-5 {
        fill: #ffec9e;
      }

      .cls-6 {
        fill: none;
      }
    </style>
  </defs>
  <polygon class="cls-3" points="9 17 1 13 1 21 9 17"/>
  <polygon class="cls-3" points="17 17 9 13 9 21 17 17"/>
  <rect class="cls-3" x="31" y="3" width="96" height="32" rx="10" ry="10"/>
  <rect class="cls-4" x="29" y="1" width="96" height="32" rx="10" ry="10"/>
  <text class="cls-2" transform="translate(39 21)"><tspan x="0" y="0">notification</tspan></text>
  <a xlink:href="#Identifier">
    <g>
      <rect class="cls-3" x="147" y="3" width="78" height="32"/>
      <rect class="cls-5" x="145" y="1" width="78" height="32"/>
      <text class="cls-1" transform="translate(155 21)"><tspan x="0" y="0">Identifier</tspan></text>
    </g>
  </a>
  <rect class="cls-3" x="245" y="3" width="26" height="32" rx="10" ry="10"/>
  <rect class="cls-4" x="243" y="1" width="26" height="32" rx="10" ry="10"/>
  <text class="cls-2" transform="translate(253 21)"><tspan x="0" y="0">(</tspan></text>
  <a xlink:href="#EventName">
    <g>
      <rect class="cls-3" x="291" y="3" width="92" height="32"/>
      <rect class="cls-5" x="289" y="1" width="92" height="32"/>
      <text class="cls-1" transform="translate(299 21)"><tspan x="0" y="0">EventName</tspan></text>
    </g>
  </a>
  <rect class="cls-3" x="403" y="3" width="26" height="32" rx="10" ry="10"/>
  <rect class="cls-4" x="401" y="1" width="26" height="32" rx="10" ry="10"/>
  <text class="cls-2" transform="translate(411 21)"><tspan x="0" y="0">)</tspan></text>
  <rect class="cls-3" x="449" y="3" width="28" height="32" rx="10" ry="10"/>
  <rect class="cls-4" x="447" y="1" width="28" height="32" rx="10" ry="10"/>
  <text class="cls-2" transform="translate(457 21)"><tspan x="0" y="0">{</tspan></text>
  <a xlink:href="#NotificationPayload">
    <g>
      <rect class="cls-3" x="237" y="69" width="142" height="32"/>
      <rect class="cls-5" x="235" y="67" width="142" height="32"/>
      <text class="cls-1" transform="translate(245 87)"><tspan x="0" y="0">NotificationPayload</tspan></text>
    </g>
  </a>
  <rect class="cls-3" x="399" y="69" width="28" height="32" rx="10" ry="10"/>
  <rect class="cls-4" x="397" y="67" width="28" height="32" rx="10" ry="10"/>
  <text class="cls-2" transform="translate(407 87)"><tspan x="0" y="0">}</tspan></text>
  <rect class="cls-3" x="447" y="69" width="24" height="32" rx="10" ry="10"/>
  <rect class="cls-4" x="445" y="67" width="24" height="32" rx="10" ry="10"/>
  <text class="cls-2" transform="translate(455 87)"><tspan x="0" y="0">;</tspan></text>
  <path class="cls-6" d="M17,17h2M19,17h10M125,17h10M135,17h10M223,17h10M233,17h10M269,17h10M279,17h10M381,17h10M391,17h10M427,17h10M437,17h10M475,17h10M487,17h2M491,17h2M495,17h2M213,83h2M217,83h2M221,83h2M225,83h10M377,83h10M387,83h10M425,83h10M435,83h10M469,83h10M482,83h-3"/>
  <polygon class="cls-3" points="489 83 497 79 497 87 489 83"/>
  <polygon class="cls-3" points="489 83 481 79 481 87 489 83"/>
  <polygon class="cls-3" points="9.5 231 1.5 227 1.5 235 9.5 231"/>
  <polygon class="cls-3" points="17.5 231 9.5 227 9.5 235 17.5 231"/>
  <rect class="cls-3" x="31.5" y="217" width="26" height="32" rx="10" ry="10"/>
  <rect class="cls-4" x="29.5" y="215" width="26" height="32" rx="10" ry="10"/>
  <text class="cls-2" transform="translate(39.5 235)"><tspan x="0" y="0">[</tspan></text>
  <a xlink:href="#EventName">
    <g>
      <rect class="cls-3" x="117.5" y="249" width="92" height="32"/>
      <rect class="cls-5" x="115.5" y="247" width="92" height="32"/>
      <text class="cls-1" transform="translate(125.5 267)"><tspan x="0" y="0">EventName</tspan></text>
    </g>
  </a>
  <rect class="cls-3" x="229.5" y="249" width="24" height="32" rx="10" ry="10"/>
  <rect class="cls-4" x="227.5" y="247" width="24" height="32" rx="10" ry="10"/>
  <text class="cls-2" transform="translate(237.5 267)"><tspan x="0" y="0">.</tspan></text>
  <a xlink:href="#DatastreamName">
    <g>
      <rect class="cls-3" x="293.5" y="217" width="132" height="32"/>
      <rect class="cls-5" x="291.5" y="215" width="132" height="32"/>
      <text class="cls-1" transform="translate(301.5 235)"><tspan x="0" y="0">DatastreamName</tspan></text>
    </g>
  </a>
  <rect class="cls-3" x="97.5" y="173" width="24" height="32" rx="10" ry="10"/>
  <rect class="cls-4" x="95.5" y="171" width="24" height="32" rx="10" ry="10"/>
  <text class="cls-2" transform="translate(105.5 191)"><tspan x="0" y="0">,</tspan></text>
  <rect class="cls-3" x="465.5" y="217" width="26" height="32" rx="10" ry="10"/>
  <rect class="cls-4" x="463.5" y="215" width="26" height="32" rx="10" ry="10"/>
  <text class="cls-2" transform="translate(473.5 235)"><tspan x="0" y="0">]</tspan></text>
  <path class="cls-6" d="M17.5,231h2M19.5,231h10M55.5,231h10M105.5,231h10M115.5,231h146M85.5,231h20M261.5,231h20M85.5,231c6.7,0,10,3.3,10,10M271.5,241c0-6.7,3.3-10,10-10M95.5,241v12M271.5,253v-12M95.5,253c0,6.7,3.3,10,10,10M261.5,263c6.7,0,10-3.3,10-10M105.5,263h10M207.5,263h10M217.5,263h10M251.5,263h10M281.5,231h10M423.5,231h10M65.5,231h20M84.5,231c-6,0-9-3.3-9-10v-24c0-6.7,3.3-10,10-10M433.5,231h20M433.5,231c6.7,0,10-3.3,10-10v-24c0-6.7-3.3-10-10-10M85.5,187h10M119.5,187h10M129.5,187h304M453.5,231h10M489.5,231h10M502.5,231h-3"/>
  <polygon class="cls-3" points="509.5 231 517.5 227 517.5 235 509.5 231"/>
  <polygon class="cls-3" points="509.5 231 501.5 227 501.5 235 509.5 231"/>
  <text class="cls-2" transform="translate(1.5 154.1)"><tspan x="0" y="0">NotificationPayload:</tspan></text>
</svg>

<?xml version="1.0" encoding="UTF-8"?>
<svg xmlns="http://www.w3.org/2000/svg" width="499" height="103">
   <defs>
      <style type="text/css">
    @namespace "http://www.w3.org/2000/svg";
    .line                 {fill: none; stroke: #332900; stroke-width: 1;}
    .bold-line            {stroke: #141000; shape-rendering: crispEdges; stroke-width: 2;}
    .thin-line            {stroke: #1F1800; shape-rendering: crispEdges}
    .filled               {fill: #332900; stroke: none;}
    text.terminal         {font-family: Verdana, Sans-serif;
                            font-size: 12px;
                            fill: #141000;
                            font-weight: bold;
                          }
    text.nonterminal      {font-family: Verdana, Sans-serif;
                            font-size: 12px;
                            fill: #1A1400;
                            font-weight: normal;
                          }
    text.regexp           {font-family: Verdana, Sans-serif;
                            font-size: 12px;
                            fill: #1F1800;
                            font-weight: normal;
                          }
    rect, circle, polygon {fill: #332900; stroke: #332900;}
    rect.terminal         {fill: #FFDB4D; stroke: #332900; stroke-width: 1;}
    rect.nonterminal      {fill: #FFEC9E; stroke: #332900; stroke-width: 1;}
    rect.text             {fill: none; stroke: none;}
    polygon.regexp        {fill: #FFF4C7; stroke: #332900; stroke-width: 1;}
  </style>
   </defs>
   <polygon points="9 17 1 13 1 21"/>
   <polygon points="17 17 9 13 9 21"/>
   <rect x="31" y="3" width="96" height="32" rx="10"/>
   <rect x="29"
         y="1"
         width="96"
         height="32"
         class="terminal"
         rx="10"/>
   <text class="terminal" x="39" y="21">notification</text>
   <a xmlns:xlink="http://www.w3.org/1999/xlink"
      xlink:href="#Identifier"
      xlink:title="Identifier">
      <rect x="147" y="3" width="78" height="32"/>
      <rect x="145" y="1" width="78" height="32" class="nonterminal"/>
      <text class="nonterminal" x="155" y="21">Identifier</text>
   </a>
   <rect x="245" y="3" width="26" height="32" rx="10"/>
   <rect x="243"
         y="1"
         width="26"
         height="32"
         class="terminal"
         rx="10"/>
   <text class="terminal" x="253" y="21">(</text>
   <a xmlns:xlink="http://www.w3.org/1999/xlink"
      xlink:href="#EventName"
      xlink:title="EventName">
      <rect x="291" y="3" width="92" height="32"/>
      <rect x="289" y="1" width="92" height="32" class="nonterminal"/>
      <text class="nonterminal" x="299" y="21">EventName</text>
   </a>
   <rect x="403" y="3" width="26" height="32" rx="10"/>
   <rect x="401"
         y="1"
         width="26"
         height="32"
         class="terminal"
         rx="10"/>
   <text class="terminal" x="411" y="21">)</text>
   <rect x="449" y="3" width="28" height="32" rx="10"/>
   <rect x="447"
         y="1"
         width="28"
         height="32"
         class="terminal"
         rx="10"/>
   <text class="terminal" x="457" y="21">{</text>
   <a xmlns:xlink="http://www.w3.org/1999/xlink"
      xlink:href="#NotificationPayload"
      xlink:title="NotificationPayload">
      <rect x="237" y="69" width="142" height="32"/>
      <rect x="235" y="67" width="142" height="32" class="nonterminal"/>
      <text class="nonterminal" x="245" y="87">NotificationPayload</text>
   </a>
   <rect x="399" y="69" width="28" height="32" rx="10"/>
   <rect x="397"
         y="67"
         width="28"
         height="32"
         class="terminal"
         rx="10"/>
   <text class="terminal" x="407" y="87">}</text>
   <rect x="447" y="69" width="24" height="32" rx="10"/>
   <rect x="445"
         y="67"
         width="24"
         height="32"
         class="terminal"
         rx="10"/>
   <text class="terminal" x="455" y="87">;</text>
   <path class="line"
         d="m17 17 h2 m0 0 h10 m96 0 h10 m0 0 h10 m78 0 h10 m0 0 h10 m26 0 h10 m0 0 h10 m92 0 h10 m0 0 h10 m26 0 h10 m0 0 h10 m28 0 h10 m2 0 l2 0 m2 0 l2 0 m2 0 l2 0 m-284 66 l2 0 m2 0 l2 0 m2 0 l2 0 m2 0 h10 m142 0 h10 m0 0 h10 m28 0 h10 m0 0 h10 m24 0 h10 m3 0 h-3"/>
   <polygon points="489 83 497 79 497 87"/>
   <polygon points="489 83 481 79 481 87"/>
</svg>
